assets/images/by_suburb.svg

<svg fill="none" height="18" viewBox="0 0 19 18" width="19" xmlns="http://www.w3.org/2000/svg"><path d="m13.1667 12.3333h-1.6666v5h-2.50002v-4.1667h-3.33333v4.1667h-2.5v-5h-1.66667l5.83333-5.00001zm-9.16662-11.666674 3.33333 3.333334h-.83333v2.5h-1.66667v-2.5h-1.66666v2.5h-1.66667v-2.5h-.833332zm10.00002.833334 4.1666 4.16667h-.8333v3.33333h-2.5v-2.5h-1.6667v2.5h-1.3833l-1.1167-.94167v-2.39166h-.83329z" fill="#000"/></svg>

<svg width="19" height="18" viewBox="0 0 19 18" fill="none" xmlns="http://www.w3.org/2000/svg"><path d="M13.1667 12.3333H11.5001V17.3333H9.00008V13.1666H5.66675V17.3333H3.16675V12.3333H1.50008L7.33341 7.33329L13.1667 12.3333ZM4.00008 0.666626L7.33341 3.99996H6.50008V6.49996H4.83341V3.99996H3.16675V6.49996H1.50008V3.99996H0.666748L4.00008 0.666626ZM14.0001 1.49996L18.1667 5.66663H17.3334V8.99996H14.8334V6.49996H13.1667V8.99996H11.7834L10.6667 8.05829V5.66663H9.83341L14.0001 1.49996Z" fill="#000"/></svg>
